src/next/res/dialogfoldernot_16.svg

<svg height="16" viewBox="0 0 16 16" width="16" xmlns="http://www.w3.org/2000/svg" xmlns:xlink="http://www.w3.org/1999/xlink"><linearGradient id="a" gradientUnits="userSpaceOnUse" x1="8" x2="8" y1="5" y2="15"><stop offset="0" stop-color="#8f8f8f"/><stop offset=".94117647" stop-color="#777"/><stop offset="1" stop-color="#8c8c8c"/></linearGradient><linearGradient id="b" gradientUnits="userSpaceOnUse" x1="5.5" x2="5.5" y1="12" y2="13"><stop offset="0" stop-color="#454545"/><stop offset="1" stop-color="#454545" stop-opacity="0"/></linearGradient><linearGradient id="c" gradientUnits="userSpaceOnUse" x1="9" x2="9" y1="-1" y2="10"><stop offset="0" stop-color="#102134"/><stop offset="1" stop-color="#102134" stop-opacity="0"/></linearGradient><filter id="d" color-interpolation-filters="sRGB" height="1.267833" width="1.129187" x="-.064594" y="-.133917"><feGaussianBlur stdDeviation="3.1247207"/></filter><linearGradient id="e" gradientUnits="userSpaceOnUse" x1=".37741" x2=".37741" y1="5.214652" y2="3.309088"><stop offset="0" stop-color="#616162"/><stop offset="1" stop-color="#57616c" stop-opacity="0"/></linearGradient><linearGradient id="f" gradientTransform="matrix(.21345221 0 0 .1138394 -11.411169 -103.22724)" gradientUnits="userSpaceOnUse" x1="124.01234" x2="124.01234" y1="966.51019" y2="935.34326"><stop offset="0"/><stop offset="1" stop-color="#34608f" stop-opacity="0"/></linearGradient><linearGradient id="g" gradientUnits="userSpaceOnUse" x1="55" x2="55" y1="1036.4132" y2="1032.4822"><stop offset="0" stop-color="#003d7b"/><stop offset="1" stop-color="#003d7b" stop-opacity="0"/></linearGradient><filter id="h" color-interpolation-filters="sRGB" height="1.697208" width="1.027888" x="-.013944" y="-.348604"><feGaussianBlur stdDeviation=".70882694"/></filter><filter id="i" color-interpolation-filters="sRGB" height="1.869989" width="1.027669" x="-.013834" y="-.434994"><feGaussianBlur stdDeviation=".70324038"/></filter><clipPath id="j"><rect height="28.072842" rx="4" width="101.14289" x="4" y="941.36218"/></clipPath><linearGradient id="k" gradientTransform="matrix(.1133598 0 0 .1691546 .642795 -76.95463)" gradientUnits="userSpaceOnUse" x1="417.76013" x2="417.76013" y1="691.40674" y2="549.52472"><stop offset="0" stop-color="#cbcbcd"/><stop offset=".5" stop-color="#e0e0e2"/><stop offset="1" stop-color="#fff"/></linearGradient><linearGradient id="l" gradientTransform="matrix(1.25 0 0 1 -145.53581 -244.8761)" gradientUnits="userSpaceOnUse" x1="167.62865" x2="167.62865" y1="340.8761" y2="308.8761"><stop offset="0" stop-color="#cbcbcd"/><stop offset=".66545075" stop-color="#e0e0e2"/><stop offset="1" stop-color="#fff"/></linearGradient><filter id="m"><feGaussianBlur stdDeviation="2.4"/></filter><g transform="translate(0 -1)"><path d="m-46.991242 21.13992h114.000023c2.216 0 4 .8652 4 1.94 0 1.0747-1.78433 1.902-4 1.94-36.945183.6329-74.7030655.7782-114.000023 0-2.215566-.044-4-.8653-4-1.94 0-1.0748 1.784-1.94 4-1.94z" filter="url(#i)" opacity=".554286" transform="matrix(.125 0 0 .125 6.748904 12.35751)"/><rect fill="url(#g)" filter="url(#h)" height="4.39199" opacity=".577143" rx="2.439995" ry="2.195995" transform="matrix(.125 0 0 .25614775 -.125 -251.09298)" width="121.99997" x="3.000028" y="1032.4822"/><path d="m.5 1c-.5 0-.5.3826937-.5.5v1.5 5c0 .554.446 1 1 1h13c.554 0 1-.446 1-1v-5c0-.554-.446-1-1-1h-8.0957031c-.0842007-.4859507-.178001-1-.4042969-1z" fill="#727272"/><path d="m.5 1c-.5 0-.5.3826937-.5.5v1.5 5c0 .554.446 1 1 1v-6-1h3.8828125c.013345.068527.023996.094239.037109.1699219.0826732.4792195.4980774.8295107.9843754.8300781h1.0957031 7v6c.554 0 1-.446 1-1v-5c0-.554-.446-1-1-1h-8.0957031c-.0842007-.4859507-.178001-1-.4042969-1z" fill="url(#c)" opacity=".25"/><path clip-path="url(#j)" d="m25.67146 956.10785-21.6714601-.15854.0000002 57.33469 107.8857499-.02v-60.57188c0-2.54081-2.05959-4.58387-4.62097-4.58387h-69.59332c-9.375263 0-5.067235 7.84799-12 8z" fill="#37383a" fill-opacity=".801471" filter="url(#d)" transform="matrix(.14830504 0 0 .14830504 -.59322 -136.2721)"/><path d="m1 6h2.5l1-1h10.5c.554 0 1 .446 1 1v8c0 .554-.446 1-1 1h-14c-.554 0-1-.446-1-1v-7c0-.554.446-1 1-1z" fill="url(#a)"/><path d="m4.5 5-1 1h-2.5c-.554 0-1 .446-1 1v1c0-.554.4471237-.964733 1-1h2.5l1-1h10.5c.554 0 1 .446 1 1v-1c0-.554-.446-1-1-1z" fill="#c6c6c6"/><path d="m1 2h3v.9999999h-3z" fill="#fcf9e9"/><path d="m3 2h1v.9999999h-1z" fill="#b4b4b4"/><path d="m0 12h16v1h-16z" fill="#6e6e6e"/><path d="m0 12h7 9v1h-16z" fill="url(#b)"/><path d="m0 13h16v.5h-16z" fill="#c6c6c6"/><path d="m1 6c-.5505375 0-.9925198.4410516-.9980469.9902344v7.0195316c.00023.02285.0119482.042.0136719.06445.038109.321065.7510484.923754.984375.925784.0003916.000003.00156 0 .00195 0v-9z" fill="url(#e)" opacity=".594286"/><path d="m15 5v10c.554 0 1-.446 1-1v-8c0-.554-.446-1-1-1z" fill="url(#f)" opacity=".405714"/></g><g transform="matrix(.125 0 0 .125 1 1)"><rect filter="url(#m)" height="94.285713" opacity=".4" rx="1.85197" ry="2.186269" transform="matrix(1 0 0 .9333333 -79.62865 -205.35101)" width="104" x="91.628647" y="250.01895"/><rect fill="url(#k)" height="80" rx=".000001" width="96" x="16" y="31.999998"/><rect fill-opacity=".16763" height="24.000002" rx=".000002" ry=".000001" width="80" x="24" y="39.999996"/><rect fill="#fff" height="16.000002" rx=".000002" ry="0" width="64" x="32" y="47.999996"/><rect fill-opacity=".375" height="32.000004" rx=".000002" ry=".000001" transform="scale(1 -1)" width="80" x="23.999996" y="-104"/><rect fill="url(#l)" height="24.000002" rx=".000002" ry=".000001" width="80" x="23.999996" y="72"/><g stroke-width=".657006"><path d="m44.782489 91.387859q-2.522902-2.811985-2.522902-7.227064 0-4.415079 2.522902-7.227064 2.549183-2.811985 6.675179-2.811985 4.152277 0 6.701459 2.811985 2.549183 2.785705 2.549183 7.358465 0 4.257398-2.522903 7.095663-2.496622 2.811984-6.701459 2.811984-4.178556 0-6.701459-2.811984zm6.701459-13.902243q-2.391501 0-3.836913 1.839616-1.445413 1.813336-1.445413 4.835563 0 3.022226 1.445413 4.861843 1.445412 1.813336 3.836913 1.813336 2.365221 0 3.810634-1.813336 1.471693-1.813336 1.471693-4.756722 0-3.101068-1.445413-4.940684-1.419132-1.839616-3.836914-1.839616z"/><path d="m72.784262 87.183021v6.412377h-3.942034v-19.158289h3.942034v8.409674l7.489866-8.409674h4.651601l-7.647547 8.251993 8.462234 10.906296h-4.704161l-6.280975-8.462235z"/></g></g></svg>

<?xml version="1.0" encoding="UTF-8" standalone="no"?>
<!-- Created with Inkscape (http://www.inkscape.org/) -->

<svg
   xmlns:dc="http://purl.org/dc/elements/1.1/"
   xmlns:cc="http://creativecommons.org/ns#"
   xmlns:rdf="http://www.w3.org/1999/02/22-rdf-syntax-ns#"
   xmlns:svg="http://www.w3.org/2000/svg"
   xmlns="http://www.w3.org/2000/svg"
   xmlns:xlink="http://www.w3.org/1999/xlink"
   xmlns:sodipodi="http://sodipodi.sourceforge.net/DTD/sodipodi-0.dtd"
   xmlns:inkscape="http://www.inkscape.org/namespaces/inkscape"
   version="1.1"
   id="svg2"
   width="16"
   height="16"
   viewBox="0 0 16 16"
   sodipodi:docname="dialogfoldernot_16.svg"
   inkscape:version="0.92.4 (unknown)"
   inkscape:export-filename="/home/rizmut/Dokumen/Rizmut/Github/libreoffice-style-karasa-jaga/build/next/res/dialogfoldernot_16.png"
   inkscape:export-xdpi="96"
   inkscape:export-ydpi="96">
  <metadata
     id="metadata8">
    <rdf:RDF>
      <cc:Work
         rdf:about="">
        <dc:format>image/svg+xml</dc:format>
        <dc:type
           rdf:resource="http://purl.org/dc/dcmitype/StillImage" />
        <dc:title></dc:title>
      </cc:Work>
    </rdf:RDF>
  </metadata>
  <defs
     id="defs6">
    <linearGradient
       inkscape:collect="always"
       id="linearGradient854">
      <stop
         style="stop-color:#454545;stop-opacity:1"
         offset="0"
         id="stop850" />
      <stop
         style="stop-color:#454545;stop-opacity:0"
         offset="1"
         id="stop852" />
    </linearGradient>
    <linearGradient
       inkscape:collect="always"
       xlink:href="#linearGradient838-6"
       id="linearGradient840"
       x1="9"
       y1="5"
       x2="9"
       y2="15"
       gradientUnits="userSpaceOnUse"
       gradientTransform="translate(-1)" />
    <linearGradient
       inkscape:collect="always"
       xlink:href="#linearGradient854"
       id="linearGradient856"
       x1="6.5"
       y1="12"
       x2="6.5"
       y2="13"
       gradientUnits="userSpaceOnUse"
       gradientTransform="translate(-1)" />
    <linearGradient
       inkscape:collect="always"
       id="linearGradient4716">
      <stop
         style="stop-color:#102134;stop-opacity:1;"
         offset="0"
         id="stop4718" />
      <stop
         style="stop-color:#102134;stop-opacity:0;"
         offset="1"
         id="stop4720" />
    </linearGradient>
    <linearGradient
       inkscape:collect="always"
       xlink:href="#linearGradient4716"
       id="linearGradient906"
       x1="10"
       y1="-1"
       x2="10"
       y2="10"
       gradientUnits="userSpaceOnUse"
       gradientTransform="translate(-1)" />
    <filter
       style="color-interpolation-filters:sRGB"
       inkscape:collect="always"
       id="filter4747"
       x="-0.06459371"
       width="1.1291873"
       y="-0.1339166"
       height="1.2678332">
      <feGaussianBlur
         inkscape:collect="always"
         stdDeviation="3.1247207"
         id="feGaussianBlur4749" />
    </filter>
    <linearGradient
       inkscape:collect="always"
       xlink:href="#linearGradient4608"
       id="linearGradient4614"
       x1="3"
       y1="968.26129"
       x2="3"
       y2="953.01678"
       gradientUnits="userSpaceOnUse"
       gradientTransform="matrix(0.12499998,0,0,0.12499998,0.0024099,-115.81799)" />
    <linearGradient
       inkscape:collect="always"
       id="linearGradient4608">
      <stop
         style="stop-color:#616162;stop-opacity:1"
         offset="0"
         id="stop4610" />
      <stop
         style="stop-color:#57616c;stop-opacity:0"
         offset="1"
         id="stop4612" />
    </linearGradient>
    <linearGradient
       inkscape:collect="always"
       xlink:href="#linearGradient4616"
       id="linearGradient4622"
       x1="124.01234"
       y1="966.51019"
       x2="124.01234"
       y2="935.34326"
       gradientUnits="userSpaceOnUse"
       gradientTransform="matrix(0.21345221,0,0,0.1138394,-11.411169,-103.22724)" />
    <linearGradient
       id="linearGradient4616">
      <stop
         style="stop-color:#000000;stop-opacity:1;"
         offset="0"
         id="stop4618" />
      <stop
         style="stop-color:#34608f;stop-opacity:0;"
         offset="1"
         id="stop4620" />
    </linearGradient>
    <linearGradient
       inkscape:collect="always"
       xlink:href="#linearGradient4624"
       id="linearGradient4630"
       x1="55"
       y1="1036.4132"
       x2="55"
       y2="1032.4822"
       gradientUnits="userSpaceOnUse" />
    <linearGradient
       inkscape:collect="always"
       id="linearGradient4624">
      <stop
         style="stop-color:#003d7b;stop-opacity:1;"
         offset="0"
         id="stop4626" />
      <stop
         style="stop-color:#003d7b;stop-opacity:0;"
         offset="1"
         id="stop4628" />
    </linearGradient>
    <filter
       style="color-interpolation-filters:sRGB"
       inkscape:collect="always"
       id="filter4584"
       x="-0.013944133"
       width="1.0278883"
       y="-0.34860396"
       height="1.6972079">
      <feGaussianBlur
         inkscape:collect="always"
         stdDeviation="0.70882694"
         id="feGaussianBlur4586" />
    </filter>
    <filter
       style="color-interpolation-filters:sRGB"
       inkscape:collect="always"
       id="filter4724"
       x="-0.013834233"
       width="1.0276685"
       y="-0.43499437"
       height="1.8699887">
      <feGaussianBlur
         inkscape:collect="always"
         stdDeviation="0.70324038"
         id="feGaussianBlur4726" />
    </filter>
    <linearGradient
       inkscape:collect="always"
       id="linearGradient838-6">
      <stop
         style="stop-color:#8f8f8f;stop-opacity:1"
         offset="0"
         id="stop834-7" />
      <stop
         id="stop985-5"
         offset="0.94117647"
         style="stop-color:#777777;stop-opacity:1" />
      <stop
         style="stop-color:#8c8c8c;stop-opacity:1"
         offset="1"
         id="stop836-3" />
    </linearGradient>
    <clipPath
       clipPathUnits="userSpaceOnUse"
       id="clipPath920">
      <rect
         style="opacity:0.6457142;fill:#155293;fill-opacity:1;stroke:none;stroke-width:1"
         id="rect922"
         width="101.14289"
         height="28.072842"
         x="4"
         y="941.36218"
         rx="4"
         ry="4" />
    </clipPath>
    <filter
       id="b">
      <feGaussianBlur
         stdDeviation="2.4"
         id="feGaussianBlur9" />
    </filter>
    <linearGradient
       id="a"
       gradientTransform="matrix(0.1133598,0,0,0.1691546,0.642795,-76.95463)"
       gradientUnits="userSpaceOnUse"
       x1="417.76013"
       x2="417.76013"
       y1="691.40674"
       y2="549.52472">
      <stop
         offset="0"
         stop-color="#cbcbcd"
         id="stop2" />
      <stop
         offset=".5"
         stop-color="#e0e0e2"
         id="stop4" />
      <stop
         offset="1"
         stop-color="#fff"
         id="stop6" />
    </linearGradient>
    <linearGradient
       id="c"
       gradientTransform="matrix(1.25,0,0,1,-145.53581,-244.8761)"
       gradientUnits="userSpaceOnUse"
       x1="167.62865"
       x2="167.62865"
       y1="340.8761"
       y2="308.8761">
      <stop
         offset="0"
         stop-color="#cbcbcd"
         id="stop12" />
      <stop
         offset=".66545075"
         stop-color="#e0e0e2"
         id="stop14" />
      <stop
         offset="1"
         stop-color="#fff"
         id="stop16" />
    </linearGradient>
    <filter
       id="b-3">
      <feGaussianBlur
         stdDeviation="2.4"
         id="feGaussianBlur9-6" />
    </filter>
  </defs>
  <sodipodi:namedview
     pagecolor="#ffffff"
     bordercolor="#666666"
     borderopacity="1"
     objecttolerance="10"
     gridtolerance="10"
     guidetolerance="10"
     inkscape:pageopacity="0"
     inkscape:pageshadow="2"
     inkscape:window-width="1366"
     inkscape:window-height="714"
     id="namedview4"
     showgrid="true"
     inkscape:zoom="21.301592"
     inkscape:cx="5.4634742"
     inkscape:cy="4.6882964"
     inkscape:window-x="0"
     inkscape:window-y="28"
     inkscape:window-maximized="1"
     inkscape:current-layer="svg2"
     inkscape:snap-page="true"
     inkscape:snap-smooth-nodes="true">
    <inkscape:grid
       type="xygrid"
       id="grid828" />
  </sodipodi:namedview>
  <g
     id="g1029"
     transform="translate(0,-1)">
    <path
       transform="matrix(0.125,0,0,0.125,6.7489037,12.35751)"
       sodipodi:nodetypes="sssssss"
       inkscape:connector-curvature="0"
       id="rect4554"
       d="M -46.991242,21.13992 H 67.008781 c 2.216,0 4,0.8652 4,1.94 0,1.0747 -1.78433,1.902 -4,1.94 -36.945183,0.6329 -74.7030655,0.7782 -114.000023,0 -2.215566,-0.044 -4,-0.8653 -4,-1.94 0,-1.0748 1.784,-1.94 4,-1.94 z"
       style="display:inline;opacity:0.55428569;fill:#000000;fill-opacity:1;stroke:none;filter:url(#filter4724);enable-background:new" />
    <rect
       transform="matrix(0.125,0,0,0.25614775,-0.125,-251.09298)"
       style="display:inline;opacity:0.57714281;fill:url(#linearGradient4630);fill-opacity:1;stroke:none;filter:url(#filter4584);enable-background:new"
       id="rect4578"
       width="121.99997"
       height="4.3919897"
       x="3.0000281"
       y="1032.4822"
       rx="2.4399951"
       ry="2.1959949" />
    <path
       sodipodi:nodetypes="sscsssssscss"
       inkscape:connector-curvature="0"
       id="rect832"
       d="M 0.5,1 C 0,1 0,1.3826937 0,1.5 V 3 8 c 0,0.554 0.446,1 1,1 h 13 c 0.554,0 1,-0.446 1,-1 V 3 C 15,2.446 14.554,2 14,2 H 5.9042969 C 5.8200962,1.5140493 5.7262959,1 5.5,1 Z"
       style="opacity:1;fill:#727272;fill-opacity:1;stroke:none;stroke-width:1;stroke-miterlimit:4;stroke-dasharray:none;stroke-opacity:1" />
    <path
       sodipodi:nodetypes="sscscccccccccssscss"
       inkscape:connector-curvature="0"
       id="path875"
       d="M 0.5,1 C 0,1 0,1.3826937 0,1.5 V 3 8 C 0,8.554 0.446,9 1,9 V 3 2 h 3.8828125 c 0.013345,0.068527 0.023996,0.094239 0.037109,0.1699219 C 5.0025947,2.6491414 5.4179989,2.9994326 5.9042969,3 H 7 14 v 6 c 0.554,0 1,-0.446 1,-1 V 3 C 15,2.446 14.554,2 14,2 H 5.9042969 C 5.8200962,1.5140493 5.7262959,1 5.5,1 Z"
       style="opacity:0.25;fill:url(#linearGradient906);fill-opacity:1;stroke:none;stroke-width:1;stroke-miterlimit:4;stroke-dasharray:none;stroke-opacity:1" />
    <path
       mask="none"
       transform="matrix(0.14830504,0,0,0.14830504,-0.59322015,-136.2721)"
       clip-path="url(#clipPath920)"
       sodipodi:nodetypes="ccccssccc"
       inkscape:connector-curvature="0"
       id="path3822"
       d="m 25.67146,956.10785 -21.6714601,-0.15854 2e-7,57.33469 107.8857499,-0.02 v -60.57188 c 0,-2.54081 -2.05959,-4.58387 -4.62097,-4.58387 H 37.67146 c -9.375263,0 -5.067235,7.84799 -12,8 z"
       style="display:inline;fill:#37383a;fill-opacity:0.80147058;fill-rule:nonzero;stroke:none;filter:url(#filter4747);enable-background:new" />
    <path
       sodipodi:nodetypes="sccssssssss"
       inkscape:connector-curvature="0"
       id="rect830"
       d="m 1,6 h 2.5 l 1,-1 H 15 c 0.554,0 1,0.446 1,1 v 8 c 0,0.554 -0.446,1 -1,1 H 1 C 0.446,15 0,14.554 0,14 V 7 C 0,6.446 0.446,6 1,6 Z"
       style="opacity:1;fill:url(#linearGradient840);fill-opacity:1;stroke:none;stroke-width:1;stroke-miterlimit:4;stroke-dasharray:none;stroke-opacity:1" />
    <path
       sodipodi:nodetypes="ccsscsccscssc"
       inkscape:connector-curvature="0"
       id="path860"
       d="m 4.5,5 -1,1 H 1 C 0.446,6 0,6.446 0,7 V 8 C 0,7.446 0.4471237,7.035267 1,7 h 2.5 l 1,-1 H 15 c 0.554,0 1,0.446 1,1 V 6 C 16,5.446 15.554,5 15,5 Z"
       style="opacity:1;fill:#c6c6c6;fill-opacity:1;stroke:none;stroke-width:1;stroke-miterlimit:4;stroke-dasharray:none;stroke-opacity:1" />
    <path
       sodipodi:nodetypes="ccccc"
       inkscape:connector-curvature="0"
       id="rect869"
       d="M 1,2 H 4 V 2.9999999 H 1 Z"
       style="opacity:1;fill:#fcf9e9;fill-opacity:1;stroke:none;stroke-width:0.83421183;stroke-miterlimit:4;stroke-dasharray:none;stroke-opacity:1" />
    <path
       sodipodi:nodetypes="ccccc"
       inkscape:connector-curvature="0"
       id="rect871"
       d="M 3,2 H 4 V 2.9999999 H 3 Z"
       style="opacity:1;fill:#b4b4b4;fill-opacity:1;stroke:none;stroke-width:0.48163241;stroke-miterlimit:4;stroke-dasharray:none;stroke-opacity:1" />
    <path
       sodipodi:nodetypes="ccccc"
       inkscape:connector-curvature="0"
       id="rect846"
       d="m 0,12 h 16 v 1 H 0 Z"
       style="opacity:1;fill:#6e6e6e;fill-opacity:1;stroke:none;stroke-width:1;stroke-miterlimit:4;stroke-dasharray:none;stroke-opacity:1" />
    <path
       sodipodi:nodetypes="cccccc"
       inkscape:connector-curvature="0"
       id="rect848"
       d="m 0,12 h 7 9 v 1 H 0 Z"
       style="opacity:1;fill:url(#linearGradient856);fill-opacity:1;stroke:none;stroke-width:1;stroke-miterlimit:4;stroke-dasharray:none;stroke-opacity:1" />
    <path
       sodipodi:nodetypes="ccccc"
       inkscape:connector-curvature="0"
       id="rect858"
       d="m 0,13 h 16 v 0.5 H 0 Z"
       style="opacity:1;fill:#c6c6c6;fill-opacity:1;stroke:none;stroke-width:1;stroke-miterlimit:4;stroke-dasharray:none;stroke-opacity:1" />
    <path
       sodipodi:nodetypes="sccccccs"
       inkscape:connector-curvature="0"
       id="rect4652"
       d="M 1,6 C 0.4494625,6 0.0074802,6.4410516 0.0019531,6.9902344 v 7.0195316 c 2.3e-4,0.02285 0.0119482,0.042 0.0136719,0.06445 C 0.053734,14.395281 0.7666734,14.99797 1,15 c 3.916e-4,3e-6 0.00156,0 0.00195,0 V 6 Z"
       style="display:inline;opacity:0.59428573;fill:url(#linearGradient4614);fill-opacity:1;stroke:none;stroke-width:0.12499997;enable-background:new" />
    <path
       id="rect4654"
       d="m 15,5 v 10 c 0.554,0 1,-0.446 1,-1 V 6 C 16,5.446 15.554,5 15,5 Z"
       style="display:inline;opacity:0.40571433;fill:url(#linearGradient4622);fill-opacity:1;stroke:none;stroke-width:0.1138394;enable-background:new"
       inkscape:connector-curvature="0"
       sodipodi:nodetypes="ccssc" />
  </g>
  <g
     transform="matrix(0.125,0,0,0.125,1,1.0000003)"
     id="g35">
    <rect
       style="opacity:0.4;filter:url(#b-3)"
       height="94.285713"
       rx="1.85197"
       ry="2.186269"
       transform="matrix(1,0,0,0.9333333,-79.62865,-205.35101)"
       width="104"
       x="91.628647"
       y="250.01895"
       id="rect19" />
    <rect
       style="fill:url(#a)"
       height="80"
       rx="1e-06"
       width="96"
       x="16"
       y="31.999998"
       id="rect21" />
    <rect
       style="fill-opacity:0.16763"
       height="24.000002"
       rx="2e-06"
       ry="1e-06"
       width="80"
       x="24"
       y="39.999996"
       id="rect23" />
    <rect
       style="fill:#ffffff"
       height="16.000002"
       rx="2e-06"
       ry="0"
       width="64"
       x="32"
       y="47.999996"
       id="rect25" />
    <rect
       style="fill-opacity:0.375"
       height="32.000004"
       rx="2e-06"
       ry="1e-06"
       transform="scale(1,-1)"
       width="80"
       x="23.999996"
       y="-104"
       id="rect27" />
    <rect
       style="fill:url(#c)"
       height="24.000002"
       rx="2e-06"
       ry="1e-06"
       width="80"
       x="23.999996"
       y="72"
       id="rect29" />
    <g
       aria-label="OK"
       style="font-size:26.28023148px;font-family:sans-serif;letter-spacing:0;word-spacing:0;stroke-width:0.65700603"
       id="text33">
      <path
         d="m 44.782489,91.387859 q -2.522902,-2.811985 -2.522902,-7.227064 0,-4.415079 2.522902,-7.227064 2.549183,-2.811985 6.675179,-2.811985 4.152277,0 6.701459,2.811985 2.549183,2.785705 2.549183,7.358465 0,4.257398 -2.522903,7.095663 -2.496622,2.811984 -6.701459,2.811984 -4.178556,0 -6.701459,-2.811984 z m 6.701459,-13.902243 q -2.391501,0 -3.836913,1.839616 -1.445413,1.813336 -1.445413,4.835563 0,3.022226 1.445413,4.861843 1.445412,1.813336 3.836913,1.813336 2.365221,0 3.810634,-1.813336 1.471693,-1.813336 1.471693,-4.756722 0,-3.101068 -1.445413,-4.940684 -1.419132,-1.839616 -3.836914,-1.839616 z"
         style="font-weight:600;font-family:FreeSans;letter-spacing:5;stroke-width:0.65700603"
         id="path158"
         inkscape:connector-curvature="0" />
      <path
         d="m 72.784262,87.183021 v 6.412377 H 68.842228 V 74.437109 h 3.942034 v 8.409674 l 7.489866,-8.409674 h 4.651601 l -7.647547,8.251993 8.462234,10.906296 H 81.036255 L 74.75528,85.133163 Z"
         style="font-weight:600;font-family:FreeSans;letter-spacing:5;stroke-width:0.65700603"
         id="path160"
         inkscape:connector-curvature="0" />
    </g>
  </g>
</svg>
